resources/haticons/SVG/pencil11.svg

<!-- Generated by IcoMoon.io -->
<svg version="1.1" xmlns="http://www.w3.org/2000/svg" width="24" height="24" viewBox="0 0 24 24">
<title>pencil11</title>
<path d="M15 19.5l-15 4.5 4.275-14.775 9-9.225h4.725l-9.225 9-2.775 1.725-2.25 6.525s2.25 0.675 3 3l6.525-2.25 1.5-2.775 9.225-9.225v4.5l-9 9zM9 15l1.5-3 10.5-10.5 1.5 1.5-10.5 10.5-3 1.5z"></path>
</svg>

<svg xmlns="http://www.w3.org/2000/svg" width="24" height="24"><path d="M15 19.5L0 24 4.275 9.225l9-9.225H18L8.775 9 6 10.725 3.75 17.25s2.25.675 3 3L13.275 18l1.5-2.775L24 6v4.5l-9 9zM9 15l1.5-3L21 1.5 22.5 3 12 13.5 9 15z"/></svg>
